assets/images/profileIcon.svg

<svg width="16" height="20" viewBox="0 0 16 20" fill="none" xmlns="http://www.w3.org/2000/svg">
<path fill-rule="evenodd" clip-rule="evenodd" d="M7.88902 10.619H7.92102C10.849 10.619 13.23 8.238 13.23 5.31C13.23 2.382 10.849 0 7.92102 0C4.99202 0 2.61002 2.382 2.61002 5.307C2.60002 8.227 4.96702 10.61 7.88902 10.619ZM4.03802 5.31C4.03802 3.169 5.78002 1.428 7.92102 1.428C10.061 1.428 11.802 3.169 11.802 5.31C11.802 7.45 10.061 9.192 7.92102 9.192H7.89202C5.76002 9.184 4.03102 7.444 4.03802 5.31Z" fill="#212121"/>
<path fill-rule="evenodd" clip-rule="evenodd" d="M0 16.1733C0 19.8703 5.962 19.8703 7.921 19.8703C11.32 19.8703 15.84 19.4893 15.84 16.1933C15.84 12.4963 9.88 12.4963 7.921 12.4963C4.521 12.4963 0 12.8773 0 16.1733ZM1.5 16.1733C1.5 14.7283 3.66 13.9963 7.921 13.9963C12.181 13.9963 14.34 14.7353 14.34 16.1933C14.34 17.6383 12.181 18.3703 7.921 18.3703C3.66 18.3703 1.5 17.6313 1.5 16.1733Z" fill="#212121"/>
</svg>

<svg width="16" height="20" viewBox="0 0 16 20" xmlns="http://www.w3.org/2000/svg">
  <path d="M7.921 10.619c2.928 0 5.309-2.381 5.309-5.309S10.849 0 7.921 0 2.612 2.382 2.612 5.31c0 2.928 2.381 5.309 5.309 5.309zm0-9.19c2.14 0 3.882 1.742 3.882 3.881s-1.742 3.882-3.882 3.882-3.882-1.742-3.882-3.882 1.742-3.881 3.882-3.881z" fill="currentColor"/>
  <path d="M7.921 12.496c-3.4 0-7.921.381-7.921 3.677 0 3.697 5.962 3.697 7.921 3.697 1.959 0 7.92 0 7.92-3.697 0-3.296-4.52-3.677-7.92-3.677zm0 5.874c-4.261 0-6.421-.739-6.421-2.197 0-1.445 2.16-2.177 6.421-2.177 4.26 0 6.42.732 6.42 2.177 0 1.458-2.16 2.197-6.42 2.197z" fill="currentColor"/>
</svg>
